X: 11053
T: Dublin, The
R: reel
M: 4/4
K: Dmajor
dF~F2 dfec|dF~F2 AFEF|dF~F2 dfed|c/B/A BF AFEF|
dF~F2 dfec|dF~F2 AFEF|Addc dfed|c/B/A BF ABdf||
eA~A2 eAfA|eA~A2 BAFA|eA~A2 egfe|dBcA BAFA|
eA~A2 eAfA|eA~A2 BAFA|(3efe df egfe|dBcA BAFA||
d3c dAFA|dcdA AFEF|d2dc dfed|cABF AFEF|
d3c dAFA|dcdA AFEF|d3f ~e3g|fdBc dfec||

